X:1
T: Moncrieffe House
C:Alexander Walker
R:Strathspey
Q: 128
K:Bb
M:4/4
L:1/16
|:"minor changes by Bruce Shawyer"e2|B3c d3c B3F GB3|FB,3 D3C B,G,3 G,3F|B3c d3c BG3 GB3|F3G B3d c4 c2e2|
B3c d3c B3F GB3|FB,3 D3C B,G,3 G,3F|B3c d3c BG3 GB3|F3G B3d c4 c2g2|
fB3 e3B G3B F3B|E3G D3F Cc3 c3g|fB3 d3B GB3 F3E|DB3 f3a bB3 B3g|
fB3 e3B G3B F3B|E3G D3F Cc3 c3d|eg3 df3 ce3 Bd3|GB3 FA3 BB,3 B,2:|
